Newaita/actions/22/mail-reply-all.svg

<svg height="22" viewBox="0 0 22 22" width="22" xmlns="http://www.w3.org/2000/svg"><g fill="#424242"><path d="m5.457031 18.363281v-4.546875l-3.636719 2.273438zm0 0"/><path d="m10.460938 15.179688h-1.59375c-.25 0-.453126.203124-.453126.457031v.90625c0 .253906.203126.457031.453126.457031h1.59375c.25 0 .453124-.203125.453124-.457031v-.90625c0-.253907-.203124-.457031-.453124-.457031zm0 0"/><path d="m9.09375 18.363281v-4.546875l-3.636719 2.273438zm0 0"/><path d="m3.636719 3.808594h14.554687c1.007813 0 1.820313.8125 1.820313 1.820312v10.914063c0 1.007812-.8125 1.820312-1.820313 1.820312h-5.457031v-1.820312h4.546875c.503906 0 .910156-.402344.910156-.90625v-8.898438l-6.675781 5.933594c-.34375.304687-.859375.304687-1.203125 0l-6.675781-5.933594v5.257813h-1.816407v-6.367188c0-1.007812.808594-1.820312 1.816407-1.820312zm13.078125 1.820312h-11.601563l5.800781 5.15625zm0 0"/></g></svg>

<svg xmlns="http://www.w3.org/2000/svg" xmlns:xlink="http://www.w3.org/1999/xlink" width="22px" height="22px" viewBox="0 0 22 22" version="1.1">
<g id="surface1">
     <defs>
  <style id="current-color-scheme" type="text/css">
   .ColorScheme-Text { color:#424242; } .ColorScheme-Highlight { color:#eeeeee; }
  </style>
 </defs>
<path style="fill:currentColor" class="ColorScheme-Text" d="M 5.457031 18.363281 L 5.457031 13.816406 L 1.820312 16.089844 Z M 5.457031 18.363281 "/>
     <defs>
  <style id="current-color-scheme" type="text/css">
   .ColorScheme-Text { color:#424242; } .ColorScheme-Highlight { color:#eeeeee; }
  </style>
 </defs>
<path style="fill:currentColor" class="ColorScheme-Text" d="M 10.460938 15.179688 L 8.867188 15.179688 C 8.617188 15.179688 8.414062 15.382812 8.414062 15.636719 L 8.414062 16.542969 C 8.414062 16.796875 8.617188 17 8.867188 17 L 10.460938 17 C 10.710938 17 10.914062 16.796875 10.914062 16.542969 L 10.914062 15.636719 C 10.914062 15.382812 10.710938 15.179688 10.460938 15.179688 Z M 10.460938 15.179688 "/>
     <defs>
  <style id="current-color-scheme" type="text/css">
   .ColorScheme-Text { color:#424242; } .ColorScheme-Highlight { color:#eeeeee; }
  </style>
 </defs>
<path style="fill:currentColor" class="ColorScheme-Text" d="M 9.09375 18.363281 L 9.09375 13.816406 L 5.457031 16.089844 Z M 9.09375 18.363281 "/>
     <defs>
  <style id="current-color-scheme" type="text/css">
   .ColorScheme-Text { color:#424242; } .ColorScheme-Highlight { color:#eeeeee; }
  </style>
 </defs>
<path style="fill:currentColor" class="ColorScheme-Text" d="M 3.636719 3.808594 L 18.191406 3.808594 C 19.199219 3.808594 20.011719 4.621094 20.011719 5.628906 L 20.011719 16.542969 C 20.011719 17.550781 19.199219 18.363281 18.191406 18.363281 L 12.734375 18.363281 L 12.734375 16.542969 L 17.28125 16.542969 C 17.785156 16.542969 18.191406 16.140625 18.191406 15.636719 L 18.191406 6.738281 L 11.515625 12.671875 C 11.171875 12.976562 10.65625 12.976562 10.3125 12.671875 L 3.636719 6.738281 L 3.636719 11.996094 L 1.820312 11.996094 L 1.820312 5.628906 C 1.820312 4.621094 2.628906 3.808594 3.636719 3.808594 Z M 16.714844 5.628906 L 5.113281 5.628906 L 10.914062 10.785156 Z M 16.714844 5.628906 "/>
</g>
</svg>
